app/img/benefits-2.svg

<svg width="90" height="90" viewBox="0 0 90 90" fill="none" xmlns="http://www.w3.org/2000/svg">
<path d="M25.3125 23.9062C24.5359 23.9062 23.9062 23.2766 23.9062 22.5C23.9062 21.7234 24.5359 21.0938 25.3125 21.0938C26.8632 21.0938 28.125 19.832 28.125 18.2812V15.4688C28.125 13.918 26.8632 12.6562 25.3125 12.6562C24.5359 12.6562 23.9062 12.0266 23.9062 11.25C23.9062 10.4734 24.5359 9.84375 25.3125 9.84375C28.4142 9.84375 30.9375 12.3671 30.9375 15.4688V18.2812C30.9375 21.3829 28.4142 23.9062 25.3125 23.9062Z" fill="#4C4846"/>
<path d="M41.3646 27.301L30.356 16.2924C29.8286 15.7649 29.1132 15.4685 28.3672 15.4685H25.0722C24.3263 15.4685 23.6109 15.7649 23.0834 16.2924L12.0747 27.301C11.5474 27.8286 11.251 28.5438 11.251 29.2897V57.6562C11.251 59.2096 12.5103 60.4687 14.0635 60.4687H39.376C40.9292 60.4687 42.1885 59.2096 42.1885 57.6562V29.2898C42.1883 28.544 41.892 27.8286 41.3646 27.301Z" fill="#A5C3DC"/>
<path d="M11.25 29.2906V57.657C11.25 59.2104 12.5091 60.4695 14.0625 60.4695H36.5625C38.1159 60.4695 39.375 59.2104 39.375 57.657V29.2906C39.375 28.5448 39.0786 27.8294 38.5513 27.3018L27.5426 16.2932C27.0151 15.7657 26.2999 15.4695 25.5538 15.4695H25.0713C24.3255 15.4695 23.6101 15.7658 23.0825 16.2932L12.0739 27.3018C11.5464 27.8294 11.25 28.5448 11.25 29.2906Z" fill="#E6E6EB"/>
<path d="M25.3125 26.7188C27.6425 26.7188 29.5312 24.83 29.5312 22.5C29.5312 20.17 27.6425 18.2812 25.3125 18.2812C22.9825 18.2812 21.0938 20.17 21.0938 22.5C21.0938 24.83 22.9825 26.7188 25.3125 26.7188Z" fill="#A5C3DC"/>
<path d="M30.9375 40.7812C31.7141 40.7812 32.3438 40.1516 32.3438 39.375V39.1046C32.3438 36.1521 29.9417 33.75 26.9891 33.75H26.7188V30.9375C26.7188 30.1609 26.0891 29.5312 25.3125 29.5312C24.5359 29.5312 23.9063 30.1609 23.9063 30.9375V33.75H23.6359C20.6833 33.75 18.2812 36.1521 18.2812 39.1046C18.2812 41.5663 19.9491 43.7024 22.3372 44.2995L27.6056 45.6165C28.7394 45.9 29.5313 46.9143 29.5313 48.0829C29.5313 49.4847 28.391 50.625 26.9891 50.625H23.6359C22.234 50.625 21.0938 49.4847 21.0938 48.0829V47.8125C21.0938 47.0359 20.4641 46.4062 19.6875 46.4062C18.9109 46.4062 18.2812 47.0359 18.2812 47.8125V48.0829C18.2812 51.0354 20.6833 53.4375 23.6359 53.4375H23.9063V56.25C23.9063 57.0266 24.5359 57.6562 25.3125 57.6562C26.0891 57.6562 26.7188 57.0266 26.7188 56.25V53.4375H26.9891C29.9417 53.4375 32.3438 51.0354 32.3438 48.0829C32.3438 45.6212 30.6759 43.4851 28.2878 42.888L23.0194 41.571C21.8856 41.2875 21.0938 40.2732 21.0938 39.1046C21.0938 37.7028 22.234 36.5625 23.6359 36.5625H26.9891C28.391 36.5625 29.5313 37.7028 29.5313 39.1046V39.375C29.5313 40.1516 30.1609 40.7812 30.9375 40.7812Z" fill="#FF6B6B"/>
<path d="M66.0938 74.5312H49.2188C47.6654 74.5312 46.4062 75.7904 46.4062 77.3438V87.1875H68.9062V77.3438C68.9062 75.7904 67.6471 74.5312 66.0938 74.5312Z" fill="#4C4846"/>
<path d="M68.9062 77.3438H60.4688C58.9154 77.3438 57.6562 78.6029 57.6562 80.1562V87.1875H68.9062V77.3438Z" fill="#3D3938"/>
<path d="M67.5 56.25H57.6562C52.9963 56.25 49.2188 60.0275 49.2188 64.6875V74.5312H57.6562V67.5C57.6562 65.9466 58.9154 64.6875 60.4688 64.6875H67.5C69.83 64.6875 71.7188 62.7987 71.7188 60.4688C71.7188 58.1388 69.83 56.25 67.5 56.25Z" fill="#F1C596"/>
<path d="M87.7699 54.2615C86.6716 53.1632 84.8907 53.1632 83.7925 54.2615L73.3663 64.6876H60.4687C58.9155 64.6876 57.6562 65.9467 57.6562 67.5001V74.5313H66.0937V73.1251C66.0937 71.5717 67.353 70.3126 68.9062 70.3126H73.9489C75.0756 70.3126 76.1353 69.8738 76.9319 69.077L87.77 58.2389C88.8685 57.1404 88.8685 55.3597 87.7699 54.2615Z" fill="#E8B181"/>
<path d="M67.5 62.8124H66.5626C65.786 62.8124 65.1563 62.1828 65.1563 61.4062V59.5311C65.1563 58.7545 65.786 58.1249 66.5626 58.1249H67.5C68.7945 58.1249 69.8437 59.1743 69.8437 60.4686C69.8437 61.7632 68.7945 62.8124 67.5 62.8124Z" fill="#E8B181"/>
<path d="M40.7813 81.5625H23.9063C22.3529 81.5625 21.0938 82.8216 21.0938 84.375V87.1875H43.5938V84.375C43.5938 82.8216 42.3346 81.5625 40.7813 81.5625Z" fill="#4C4846"/>
<path d="M43.5938 84.375H35.1563C33.6029 84.375 32.3438 85.6341 32.3438 87.1875H43.5938V84.375Z" fill="#3D3938"/>
<path d="M22.5 63.2812H32.3438C37.0037 63.2812 40.7813 67.0588 40.7813 71.7188H22.5C20.17 71.7188 18.2812 69.83 18.2812 67.5C18.2812 65.17 20.17 63.2812 22.5 63.2812Z" fill="#F1C596"/>
<path d="M22.5 69.8437H23.4375C24.2141 69.8437 24.8437 69.214 24.8437 68.4374V66.5624C24.8437 65.7858 24.2141 65.1561 23.4375 65.1561H22.5C21.2056 65.1561 20.1563 66.2055 20.1563 67.4998C20.1563 68.7944 21.2056 69.8437 22.5 69.8437Z" fill="#E8B181"/>
<path d="M16.6337 71.7188L6.20756 61.2927C5.10927 60.1944 3.32843 60.1944 2.23015 61.2927C1.1317 62.391 1.1317 64.1718 2.23015 65.2701L13.0683 76.1082C13.8649 76.9051 14.9245 77.3438 16.0513 77.3438H21.0938C22.647 77.3438 23.9063 78.6029 23.9063 80.1563V81.5626H40.7813V71.7188H16.6337Z" fill="#E8B181"/>
<path d="M21.0938 77.3438C22.647 77.3438 23.9063 78.6029 23.9063 80.1562V81.5625H32.3438V80.1562C32.3438 78.6029 31.0846 77.3438 29.5313 77.3438H21.0938Z" fill="#F1C596"/>
<path d="M25.3125 23.9062C22.2108 23.9062 19.6875 21.3829 19.6875 18.2812V15.4688C19.6875 12.3671 22.2108 9.84375 25.3125 9.84375C26.0891 9.84375 26.7188 10.4734 26.7188 11.25C26.7188 12.0266 26.0891 12.6562 25.3125 12.6562C23.7618 12.6562 22.5 13.918 22.5 15.4688V18.2812C22.5 19.832 23.7618 21.0938 25.3125 21.0938C26.0891 21.0938 26.7188 21.7234 26.7188 22.5C26.7188 23.2766 26.0891 23.9062 25.3125 23.9062Z" fill="#4C4846"/>
<path d="M61.875 16.875C61.0984 16.875 60.4688 16.2454 60.4688 15.4688C60.4688 14.6921 61.0984 14.0625 61.875 14.0625C63.4257 14.0625 64.6875 12.8007 64.6875 11.25V8.4375C64.6875 6.88676 63.4257 5.625 61.875 5.625C61.0984 5.625 60.4688 4.99535 60.4688 4.21875C60.4688 3.44215 61.0984 2.8125 61.875 2.8125C64.9767 2.8125 67.5 5.33584 67.5 8.4375V11.25C67.5 14.3517 64.9767 16.875 61.875 16.875Z" fill="#4C4846"/>
<path d="M77.9271 20.2698L66.9185 9.26114C66.3911 8.73362 65.6757 8.43726 64.9297 8.43726H61.6347C60.8888 8.43726 60.1734 8.73362 59.6459 9.26114L48.6372 20.2698C48.1099 20.7973 47.8135 21.5126 47.8135 22.2584V50.6249C47.8135 52.1783 49.0728 53.4374 50.626 53.4374H75.9385C77.4917 53.4374 78.751 52.1783 78.751 50.6249V22.2586C78.7508 21.5127 78.4545 20.7973 77.9271 20.2698Z" fill="#FF1F3D"/>
<path d="M47.8125 22.2594V50.6257C47.8125 52.1791 49.0716 53.4382 50.625 53.4382H73.125C74.6784 53.4382 75.9375 52.1791 75.9375 50.6257V22.2594C75.9375 21.5135 75.6411 20.7981 75.1138 20.2706L64.1051 9.26194C63.5776 8.73442 62.8624 8.43823 62.1163 8.43823H61.6338C60.888 8.43823 60.1726 8.7346 59.645 9.26194L48.6364 20.2706C48.1089 20.7981 47.8125 21.5135 47.8125 22.2594Z" fill="#FF6B6B"/>
<path d="M61.875 19.6875C64.205 19.6875 66.0938 17.7987 66.0938 15.4688C66.0938 13.1388 64.205 11.25 61.875 11.25C59.545 11.25 57.6562 13.1388 57.6562 15.4688C57.6562 17.7987 59.545 19.6875 61.875 19.6875Z" fill="#FF1F3D"/>
<path d="M67.5 33.75C68.2766 33.75 68.9062 33.1204 68.9062 32.3438V32.0734C68.9062 29.1208 66.5042 26.7188 63.5516 26.7188H63.2812V23.9062C63.2812 23.1296 62.6516 22.5 61.875 22.5C61.0984 22.5 60.4688 23.1296 60.4688 23.9062V26.7188H60.1984C57.2458 26.7188 54.8438 29.1208 54.8438 32.0734C54.8438 34.535 56.5116 36.6711 58.8997 37.2683L64.1681 38.5852C65.3019 38.8688 66.0938 39.883 66.0938 41.0516C66.0938 42.4535 64.9535 43.5938 63.5516 43.5938H60.1984C58.7965 43.5938 57.6562 42.4535 57.6562 41.0516V40.7812C57.6562 40.0046 57.0266 39.375 56.25 39.375C55.4734 39.375 54.8438 40.0046 54.8438 40.7812V41.0516C54.8438 44.0042 57.2458 46.4062 60.1984 46.4062H60.4688V49.2188C60.4688 49.9954 61.0984 50.625 61.875 50.625C62.6516 50.625 63.2812 49.9954 63.2812 49.2188V46.4062H63.5516C66.5042 46.4062 68.9062 44.0042 68.9062 41.0516C68.9062 38.59 67.2384 36.4539 64.8503 35.8567L59.5819 34.5398C58.4481 34.2562 57.6562 33.242 57.6562 32.0734C57.6562 30.6715 58.7965 29.5312 60.1984 29.5312H63.5516C64.9535 29.5312 66.0938 30.6715 66.0938 32.0734V32.3438C66.0938 33.1204 66.7234 33.75 67.5 33.75Z" fill="#E6E6EB"/>
<path d="M61.875 16.875C58.7733 16.875 56.25 14.3517 56.25 11.25V8.4375C56.25 5.33584 58.7733 2.8125 61.875 2.8125C62.6516 2.8125 63.2812 3.44215 63.2812 4.21875C63.2812 4.99535 62.6516 5.625 61.875 5.625C60.3243 5.625 59.0625 6.88676 59.0625 8.4375V11.25C59.0625 12.8007 60.3243 14.0625 61.875 14.0625C62.6516 14.0625 63.2812 14.6921 63.2812 15.4688C63.2812 16.2454 62.6516 16.875 61.875 16.875Z" fill="#4C4846"/>
</svg>

<svg width="90" height="90" fill="none" xmlns="http://www.w3.org/2000/svg"><path d="M25.313 23.906a1.406 1.406 0 010-2.812 2.816 2.816 0 002.812-2.813V15.47a2.816 2.816 0 00-2.813-2.813 1.406 1.406 0 010-2.812 5.631 5.631 0 015.625 5.625v2.812a5.631 5.631 0 01-5.625 5.625z" fill="#4C4846"/><path d="M41.365 27.301L30.356 16.292a2.812 2.812 0 00-1.989-.824h-3.295c-.746 0-1.461.297-1.989.824L12.075 27.301a2.813 2.813 0 00-.824 1.989v28.366a2.813 2.813 0 002.813 2.813h25.312a2.813 2.813 0 002.813-2.813V29.29c0-.746-.297-1.461-.824-1.989z" fill="#A5C3DC"/><path d="M11.25 29.29v28.367a2.812 2.812 0 002.813 2.813h22.5a2.812 2.812 0 002.812-2.813V29.291c0-.746-.296-1.462-.824-1.99L27.543 16.294a2.812 2.812 0 00-1.99-.823h-.482c-.745 0-1.46.296-1.989.823L12.075 27.302a2.813 2.813 0 00-.824 1.989z" fill="#E6E6EB"/><path d="M25.313 26.719a4.219 4.219 0 100-8.438 4.219 4.219 0 000 8.438z" fill="#A5C3DC"/><path d="M30.938 40.781c.776 0 1.406-.63 1.406-1.406v-.27a5.36 5.36 0 00-5.355-5.355h-.27v-2.813a1.406 1.406 0 00-2.813 0v2.813h-.27a5.36 5.36 0 00-5.355 5.355 5.347 5.347 0 004.056 5.195l5.269 1.317a2.539 2.539 0 011.925 2.466 2.545 2.545 0 01-2.542 2.542h-3.353a2.545 2.545 0 01-2.542-2.542v-.27a1.406 1.406 0 00-2.813 0v.27a5.36 5.36 0 005.355 5.355h.27v2.812a1.406 1.406 0 002.813 0v-2.813h.27a5.36 5.36 0 005.355-5.354 5.347 5.347 0 00-4.056-5.195l-5.269-1.317a2.539 2.539 0 01-1.925-2.466 2.545 2.545 0 012.542-2.542h3.353a2.545 2.545 0 012.542 2.542v.27c0 .777.63 1.406 1.407 1.406z" fill="#FF6B6B"/><path d="M66.094 74.531H49.219a2.813 2.813 0 00-2.813 2.813v9.844h22.5v-9.844a2.812 2.812 0 00-2.812-2.813z" fill="#4C4846"/><path d="M68.906 77.344H60.47a2.812 2.812 0 00-2.813 2.812v7.031h11.25v-9.843z" fill="#3D3938"/><path d="M67.5 56.25h-9.844a8.437 8.437 0 00-8.437 8.438v9.843h8.437V67.5a2.812 2.812 0 012.813-2.813H67.5a4.219 4.219 0 100-8.437z" fill="#F1C596"/><path d="M87.77 54.261a2.812 2.812 0 00-3.977 0L73.365 64.689H60.47a2.813 2.813 0 00-2.813 2.812v7.031h8.438v-1.406a2.813 2.813 0 012.812-2.812h5.043a4.19 4.19 0 002.983-1.236L87.77 58.239a2.812 2.812 0 000-3.977z" fill="#E8B181"/><path d="M67.5 62.812h-.937c-.777 0-1.407-.63-1.407-1.406v-1.875c0-.776.63-1.406 1.407-1.406h.937a2.344 2.344 0 110 4.687z" fill="#E8B181"/><path d="M40.781 81.563H23.906a2.812 2.812 0 00-2.812 2.812v2.813h22.5v-2.813a2.812 2.812 0 00-2.813-2.813z" fill="#4C4846"/><path d="M43.594 84.375h-8.438a2.812 2.812 0 00-2.812 2.813h11.25v-2.813z" fill="#3D3938"/><path d="M22.5 63.281h9.844a8.438 8.438 0 018.437 8.438H22.5a4.219 4.219 0 110-8.438z" fill="#F1C596"/><path d="M22.5 69.844h.938c.776 0 1.406-.63 1.406-1.407v-1.875c0-.776-.63-1.406-1.407-1.406H22.5a2.344 2.344 0 000 4.688z" fill="#E8B181"/><path d="M16.634 71.719L6.208 61.293A2.813 2.813 0 002.23 65.27l10.838 10.838a4.19 4.19 0 002.983 1.236h5.043a2.813 2.813 0 012.812 2.812v1.407h16.875v-9.844H16.634z" fill="#E8B181"/><path d="M21.094 77.344a2.812 2.812 0 012.812 2.812v1.406h8.438v-1.406a2.812 2.812 0 00-2.813-2.812h-8.437z" fill="#F1C596"/><path d="M25.313 23.906a5.631 5.631 0 01-5.625-5.625V15.47a5.631 5.631 0 015.625-5.625 1.406 1.406 0 010 2.812A2.816 2.816 0 0022.5 15.47v2.812a2.816 2.816 0 002.813 2.813 1.406 1.406 0 010 2.812zM61.875 16.875a1.406 1.406 0 010-2.813 2.816 2.816 0 002.813-2.812V8.437a2.816 2.816 0 00-2.813-2.812 1.406 1.406 0 010-2.813A5.631 5.631 0 0167.5 8.439v2.812a5.631 5.631 0 01-5.625 5.625z" fill="#4C4846"/><path d="M77.927 20.27L66.918 9.26a2.812 2.812 0 00-1.988-.824h-3.295c-.746 0-1.462.297-1.99.824L48.638 20.27a2.813 2.813 0 00-.824 1.988v28.367a2.813 2.813 0 002.813 2.812h25.313a2.813 2.813 0 002.812-2.812V22.259c0-.746-.297-1.462-.824-1.99z" fill="#FF1F3D"/><path d="M47.813 22.26v28.366a2.812 2.812 0 002.812 2.812h22.5a2.812 2.812 0 002.813-2.812V22.259c0-.745-.297-1.46-.824-1.988L64.105 9.26a2.812 2.812 0 00-1.989-.823h-.482c-.746 0-1.461.297-1.989.824L48.636 20.27a2.813 2.813 0 00-.824 1.988z" fill="#FF6B6B"/><path d="M61.875 19.688a4.219 4.219 0 100-8.438 4.219 4.219 0 000 8.438z" fill="#FF1F3D"/><path d="M67.5 33.75c.777 0 1.406-.63 1.406-1.406v-.27a5.36 5.36 0 00-5.354-5.355h-.27v-2.813a1.406 1.406 0 00-2.813 0v2.813h-.27a5.36 5.36 0 00-5.355 5.354 5.347 5.347 0 004.056 5.195l5.268 1.317a2.539 2.539 0 011.926 2.467 2.545 2.545 0 01-2.542 2.542h-3.354a2.545 2.545 0 01-2.542-2.542v-.27a1.406 1.406 0 00-2.812 0v.27a5.36 5.36 0 005.354 5.354h.27v2.813a1.406 1.406 0 002.813 0v-2.813h.27a5.36 5.36 0 005.355-5.354 5.347 5.347 0 00-4.056-5.195l-5.268-1.317a2.539 2.539 0 01-1.926-2.467 2.545 2.545 0 012.542-2.542h3.354a2.545 2.545 0 012.542 2.542v.27c0 .777.63 1.407 1.406 1.407z" fill="#E6E6EB"/><path d="M61.875 16.875a5.631 5.631 0 01-5.625-5.625V8.437a5.631 5.631 0 015.625-5.624 1.406 1.406 0 010 2.812 2.816 2.816 0 00-2.813 2.813v2.812a2.816 2.816 0 002.813 2.813 1.406 1.406 0 010 2.812z" fill="#4C4846"/></svg>
